images/rebasing-2.svg

<?xml version="1.0"?>
<svg xmlns="http://www.w3.org/2000/svg" xmlns:xlink="http://www.w3.org/1999/xlink" width="480px" height="220px" viewBox="0 0 480 220" version="1.1">
    <!-- Generator: Sketch 56.3 (81716) - https://sketch.com -->
    <title>images/rebasing-2</title>
    <desc>Created with Sketch.</desc>
    <g id="05---Rebasing-Workflow-2" stroke="none" stroke-width="1" fill="none" fill-rule="evenodd">
        <g id="Line-+-brown-2" transform="translate(6.000000, 66.000000)">
            <g id="brown">
                <rect id="Rectangle-1" fill="#EFEFE7" fill-rule="evenodd" x="0" y="0" width="89" height="33" rx="16.5"/>
                <text stroke="none" font-family="Source Code Pro" font-size="12px" font-weight="700" fill="#979797" fill-opacity="1" text-anchor="middle" id="C6">
                    <tspan fill="#808080" x="44.5" y="21" fill-opacity="1">0b743</tspan>
                </text>
            </g>
        </g>
        <path id="Line-4" d="M104,82 L149,82 L149,83 L104,83 L104,87 L95,82.5 L104,78 L104,82 Z" fill="#8F8981" fill-rule="nonzero"/>
        <g id="brown" transform="translate(125.000000, 66.000000)">
            <rect id="Rectangle-1" fill="#EFEFE7" fill-rule="evenodd" x="0" y="0" width="89" height="33" rx="16.5"/>
            <text stroke="none" font-family="Source Code Pro" font-size="12px" font-weight="700" fill="#979797" fill-opacity="1" text-anchor="middle" id="C6">
                <tspan fill="#808080" x="44.5" y="21" fill-opacity="1">a6b4c</tspan>
            </text>
        </g>
        <g id="Line-3-+-brown-3" transform="translate(214.000000, 66.000000)">
            <path id="Line-3" d="M9,16 L54,16 L54,17 L9,17 L9,21 L0,16.5 L9,12 L9,16 Z" fill="#8F8981" fill-rule="nonzero"/>
            <g id="brown" transform="translate(30.000000, 0.000000)">
                <rect id="Rectangle-1" fill="#EFEFE7" fill-rule="evenodd" x="0" y="0" width="89" height="33" rx="16.5"/>
                <text stroke="none" font-family="Source Code Pro" font-size="12px" font-weight="700" fill="#979797" fill-opacity="1" text-anchor="middle" id="C6">
                    <tspan fill="#808080" x="44.5" y="21" fill-opacity="1">f42c5</tspan>
                </text>
            </g>
        </g>
        <path id="Line-3" d="M341,82 L386,82 L386,83 L341,83 L341,87 L332,82.5 L341,78 L341,82 Z" fill="#8F8981" fill-rule="nonzero"/>
        <g id="brown" transform="translate(362.000000, 66.000000)">
            <rect id="Rectangle-1" fill="#EFEFE7" fill-rule="evenodd" x="0" y="0" width="89" height="33" rx="16.5"/>
            <text stroke="none" font-family="Source Code Pro" font-size="12px" font-weight="700" fill="#979797" fill-opacity="1" text-anchor="middle" id="C6">
                <tspan fill="#808080" x="44.5" y="21" fill-opacity="1">a0a41</tspan>
            </text>
        </g>
        <g id="Line-2-+-ref" transform="translate(364.000000, 9.000000)">
            <path id="Line-2" d="M42,48 L42,5 L43,5 L43,48 L47,48 L42.5,57 L38,48 L42,48 Z" fill="#8F8981" fill-rule="nonzero"/>
            <g id="ref">
                <rect id="Rectangle-2" fill="#F44D27" fill-rule="evenodd" x="0" y="0" width="106" height="33"/>
                <text stroke="none" font-family="Source Code Pro" font-size="12px" font-weight="700" fill="#979797" fill-opacity="1" text-anchor="middle" id="master">
                    <tspan fill="#f0f0f0" x="53" y="20" fill-opacity="1">master</tspan>
                </text>
            </g>
        </g>
        <g id="Group" opacity="0.5" transform="translate(209.000000, 94.000000)">
            <path id="Line-5" d="M150.839376,5.80434624 L149.348463,6.85476256 L148.772509,6.03728012 L150.263423,4.98686381 L147.959608,1.71693408 L157.908741,0.212023234 L153.14319,9.07427597 L150.839376,5.80434624 Z M113.379236,32.196718 L112.803282,31.3792355 L115.255729,29.651375 L115.831683,30.4688574 L113.379236,32.196718 Z M116.649165,29.8929039 L116.073212,29.0754214 L118.525659,27.3475608 L119.101613,28.1650433 L116.649165,29.8929039 Z M119.919095,27.5890897 L119.343141,26.7716073 L121.795589,25.0437467 L122.371542,25.8612291 L119.919095,27.5890897 Z M123.189025,25.2852756 L122.613071,24.4677932 L125.065519,22.7399326 L125.641472,23.557415 L123.189025,25.2852756 Z M126.458954,22.9814615 L125.883001,22.163979 L128.335448,20.4361184 L128.911402,21.2536009 L126.458954,22.9814615 Z M129.728884,20.6776473 L129.152931,19.8601649 L131.605378,18.1323043 L132.181332,18.9497867 L129.728884,20.6776473 Z M132.998814,18.3738332 L132.42286,17.5563508 L134.875308,15.8284902 L135.451261,16.6459726 L132.998814,18.3738332 Z M136.268744,16.0700191 L135.69279,15.2525366 L138.145237,13.524676 L138.721191,14.3421585 L136.268744,16.0700191 Z M139.538673,13.7662049 L138.96272,12.9487225 L141.415167,11.2208619 L141.991121,12.0383443 L139.538673,13.7662049 Z M142.808603,11.4623908 L142.23265,10.6449084 L144.685097,8.91704778 L145.26105,9.73453022 L142.808603,11.4623908 Z M146.078533,9.15857669 L145.502579,8.34109425 L147.955027,6.61323366 L148.53098,7.43071609 L146.078533,9.15857669 Z" fill="#8F8981" fill-rule="nonzero"/>
            <path id="Line-6" d="M133,38 L178,38 L178,39 L133,39 L133,43 L124,38.5 L133,34 L133,38 Z" fill="#8F8981" fill-rule="nonzero"/>
            <g id="Line-+-brown-5">
                <path id="Line" d="M7.83266063,4.82805823 L59.1939201,39.3640775 L58.6359225,40.1939201 L7.27466304,5.6579008 L5.04267269,8.97727107 L0.0850787153,0.221001205 L10.064651,1.50868795 L7.83266063,4.82805823 Z" fill="#8F8981" fill-rule="nonzero"/>
                <g id="brown" transform="translate(35.000000, 23.000000)">
                    <rect id="Rectangle-1" fill="#EFEFE7" fill-rule="evenodd" x="0" y="0" width="89" height="33" rx="16.5"/>
                    <text stroke="none" font-family="Source Code Pro" font-size="12px" font-weight="700" fill="#979797" fill-opacity="1" text-anchor="middle" id="C6">
                        <tspan fill="#808080" x="44.5" y="21" fill-opacity="1">e43a6</tspan>
                    </text>
                </g>
            </g>
            <g id="brown" transform="translate(154.000000, 23.000000)">
                <rect id="Rectangle-1" fill="#EFEFE7" fill-rule="evenodd" x="0" y="0" width="89" height="33" rx="16.5"/>
                <text stroke="none" font-family="Source Code Pro" font-size="12px" font-weight="700" fill="#979797" fill-opacity="1" text-anchor="middle" id="C6">
                    <tspan fill="#808080" x="44.5" y="21" fill-opacity="1">5ddae</tspan>
                </text>
            </g>
            <g id="Line-2-+-ref-2" transform="translate(156.000000, 56.000000)">
                <path id="Line-2" d="M43,9 L43,41 L42,41 L42,9 L38,9 L42.5,0 L47,9 L43,9 Z" fill="#8F8981" fill-rule="nonzero"/>
                <g id="ref" transform="translate(0.000000, 24.000000)">
                    <rect id="Rectangle-2" fill="#F44D27" fill-rule="evenodd" x="0" y="0" width="106" height="33"/>
                    <text stroke="none" font-family="Source Code Pro" font-size="12px" font-weight="700" fill="#979797" fill-opacity="1" text-anchor="middle" id="master">
                        <tspan fill="#f0f0f0" x="53" y="20" fill-opacity="1">ruby_client</tspan>
                    </text>
                </g>
            </g>
        </g>
    </g>
</svg>

<?xml version="1.0" encoding="UTF-8"?>
<svg id="svg7927" version="1.1" viewBox="0 0 454 206" xmlns="http://www.w3.org/2000/svg" xmlns:cc="http://creativecommons.org/ns#" xmlns:dc="http://purl.org/dc/elements/1.1/" xmlns:rdf="http://www.w3.org/1999/02/22-rdf-syntax-ns#">
 <metadata id="metadata7933">
  <rdf:RDF>
   <cc:Work rdf:about="">
    <dc:format>image/svg+xml</dc:format>
    <dc:type rdf:resource="http://purl.org/dc/dcmitype/StillImage"/>
    <dc:title>images/rebasing-2</dc:title>
   </cc:Work>
  </rdf:RDF>
 </metadata>
 <!-- Generator: Sketch 56.3 (81716) - https://sketch.com -->
 <title id="title7848">images/rebasing-2</title>
 <desc id="desc7850">Created with Sketch.</desc>
 <g id="g8127" transform="translate(-2,-5)">
  <g id="Line-+-brown-2" transform="translate(6,66)" style="fill-rule:evenodd;fill:none">
   <g id="brown">
    <rect id="Rectangle-1" width="89" height="33" rx="16.5" ry="16.5" style="fill-rule:evenodd;fill:#efefe7"/>
    <text id="C6" font-size="12px" font-weight="700" style="fill:#979797;font-family:'Source Code Pro';font-size:12px;font-weight:700;text-anchor:middle"><tspan id="tspan7853" x="44.5" y="21" style="fill:gray">0b743</tspan></text>
   </g>
  </g>
  <path id="Line-4" d="m104 82h45v1h-45v4l-9-4.5 9-4.5z" style="fill:#8f8981"/>
  <g id="g7865" transform="translate(125,66)" style="fill-rule:evenodd;fill:none">
   <rect id="rect7859" width="89" height="33" rx="16.5" ry="16.5" style="fill-rule:evenodd;fill:#efefe7"/>
   <text id="text7863" font-size="12px" font-weight="700" style="fill:#979797;font-family:'Source Code Pro';font-size:12px;font-weight:700;text-anchor:middle"><tspan id="tspan7861" x="44.5" y="21" style="fill:gray">a6b4c</tspan></text>
  </g>
  <g id="Line-3-+-brown-3" transform="translate(214,66)" style="fill-rule:evenodd;fill:none">
   <path id="Line-3" d="m9 16h45v1h-45v4l-9-4.5 9-4.5z" style="fill-rule:nonzero;fill:#8f8981"/>
   <g id="g7874" transform="translate(30)">
    <rect id="rect7868" width="89" height="33" rx="16.5" ry="16.5" style="fill-rule:evenodd;fill:#efefe7"/>
    <text id="text7872" font-size="12px" font-weight="700" style="fill:#979797;font-family:'Source Code Pro';font-size:12px;font-weight:700;text-anchor:middle"><tspan id="tspan7870" x="44.5" y="21" style="fill:gray">f42c5</tspan></text>
   </g>
  </g>
  <path id="path7877" d="m341 82h45v1h-45v4l-9-4.5 9-4.5z" style="fill:#8f8981"/>
  <g id="g7885" transform="translate(362,66)" style="fill-rule:evenodd;fill:none">
   <rect id="rect7879" width="89" height="33" rx="16.5" ry="16.5" style="fill-rule:evenodd;fill:#efefe7"/>
   <text id="text7883" font-size="12px" font-weight="700" style="fill:#979797;font-family:'Source Code Pro';font-size:12px;font-weight:700;text-anchor:middle"><tspan id="tspan7881" x="44.5" y="21" style="fill:gray">a0a41</tspan></text>
  </g>
  <g id="g7999" transform="translate(-2)">
   <path id="Line-2" transform="translate(366,9)" d="m42 48v-43h1v43h4l-4.5 9-4.5-9z" style="fill:#8f8981"/>
   <g id="g7992">
    <rect id="Rectangle-2" transform="matrix(.83962 0 0 1 364 9)" width="106" height="33" style="fill-rule:evenodd;fill:#f44d27"/>
    <text id="master" transform="translate(355.6 9.316)" font-size="12px" font-weight="700" style="fill-rule:evenodd;fill:#979797;font-family:'Source Code Pro';font-size:12px;font-weight:700;text-anchor:middle"><tspan id="tspan7889" x="53" y="20" style="fill:#f0f0f0">master</tspan></text>
   </g>
  </g>
  <g id="g8078" style="opacity:.5">
   <g id="g8057">
    <path id="Line-5" transform="translate(209,94)" d="m150.84 5.8043-1.4909 1.0504-.57595-.81748 1.4909-1.0504-2.3038-3.2699 9.9491-1.5049-4.7656 8.8623zm-37.46 26.392-.57596-.81748 2.4524-1.7279.57595.81748zm3.2699-2.3038-.57595-.81748 2.4524-1.7279.57595.81748zm3.2699-2.3038-.57596-.81748 2.4524-1.7279.57595.81748zm3.2699-2.3038-.57596-.81748 2.4524-1.7279.57595.81748zm3.2699-2.3038-.57595-.81748 2.4524-1.7279.57595.81748zm3.2699-2.3038-.57595-.81748 2.4524-1.7279.57595.81748zm3.2699-2.3038-.57595-.81748 2.4524-1.7279.57595.81748zm3.2699-2.3038-.57595-.81748 2.4524-1.7279.57595.81748zm3.2699-2.3038-.57595-.81748 2.4524-1.7279.57595.81748zm3.2699-2.3038-.57595-.81748 2.4524-1.7279.57595.81748zm3.2699-2.3038-.57595-.81748 2.4524-1.7279.57595.81748z" style="fill:#8f8981"/>
    <path id="Line" transform="translate(209,94)" d="m7.8327 4.8281 51.361 34.536-.558.82984-51.361-34.536-2.232 3.3194-4.9576-8.7563 9.9796 1.2877z" style="fill:#8f8981"/>
    <g id="g7903" transform="translate(244,117)" style="fill-rule:evenodd;fill:none">
     <rect id="rect7897" width="89" height="33" rx="16.5" ry="16.5" style="fill-rule:evenodd;fill:#efefe7"/>
     <text id="text7901" font-size="12px" font-weight="700" style="fill:#979797;font-family:'Source Code Pro';font-size:12px;font-weight:700;text-anchor:middle"><tspan id="tspan7899" x="44.5" y="21" style="fill:gray">e43a6</tspan></text>
    </g>
   </g>
   <g id="g8044">
    <path id="Line-6" transform="translate(209,94)" d="m133 38h45v1h-45v4l-9-4.5 9-4.5z" style="fill:#8f8981"/>
    <g id="g7912" transform="translate(363,117)" style="fill-rule:evenodd;fill:none">
     <rect id="rect7906" width="89" height="33" rx="16.5" ry="16.5" style="fill-rule:evenodd;fill:#efefe7"/>
     <text id="text7910" font-size="12px" font-weight="700" style="fill:#979797;font-family:'Source Code Pro';font-size:12px;font-weight:700;text-anchor:middle"><tspan id="tspan7908" x="44.5" y="21" style="fill:gray">5ddae</tspan></text>
    </g>
   </g>
   <g id="g8037">
    <path id="path7914" transform="translate(365,150)" d="m43 9v32h-1v-32h-4l4.5-9 4.5 9z" style="fill:#8f8981"/>
    <g id="g8030" transform="translate(-2)">
     <rect id="rect7916" transform="matrix(.83962 0 0 1 365 174)" width="106" height="33" style="fill-rule:evenodd;fill:#f44d27"/>
     <text id="text7920" transform="translate(356.1 173.87)" font-size="12px" font-weight="700" style="fill-rule:evenodd;fill:#979797;font-family:'Source Code Pro';font-size:12px;font-weight:700;text-anchor:middle"><tspan id="tspan7918" x="53" y="20" style="fill:#f0f0f0">ruby_client</tspan></text>
    </g>
   </g>
  </g>
 </g>
</svg>
